; generated by PrusaSlicer 2.9.2 on 2025-05-05 at 19:53:17 UTC


;
;

;
;
; 

; external perimeters extrusion width = 0.45mm
; perimeters extrusion width = 0.45mm
; infill extrusion width = 0.45mm
; solid infill extrusion width = 0.45mm
; top infill extrusion width = 0.40mm
; first layer extrusion width = 0.42mm

;TYPE:Custom
M413 S0 ; disable Power Loss Recovery
G90 ; use absolute coordinates
M83 ; extruder relative mode
M104 S120 ; set temporary nozzle temp to prevent oozing during homing and auto bed leveling
M140 S70 ; set final bed temp
G4 S10 ; allow partial nozzle warmup
G28 ; home all axis
G1 Z50 F240
G1 X2 Y10 F3000
M104 S240 ; set final nozzle temp
M190 S70 ; wait for bed temp to stabilize
M109 S240 ; wait for nozzle temp to stabilize
G1 Z0.28 F240
G92 E0
G1 Y140 E10 F1500 ; prime the nozzle
G1 X2.3 F5000
G92 E0
G1 Y10 E10 F1200 ; prime the nozzle
G92 E0
G21 ; set units to millimeters
G90 ; use absolute coordinates
M83 ; use relative distances for extrusion
; Filament gcode
M107
;LAYER_CHANGE
;Z:0.2
;HEIGHT:0.2
G1 E-5 F3600
G1 Z.2 F9000
G1 X88.812 Y89.829
G1 Z.2
G1 E5 F2400
;TYPE:Skirt/Brim
;WIDTH:0.42
G1 F1200
G1 X90.547 Y88.168 E.07531
G1 X92.452 Y86.704 E.07533
G1 X94.504 Y85.454 E.07534
G1 X96.961 Y84.325 E.08478
G1 X99.179 Y83.592 E.07324
G1 X101.528 Y83.088 E.07533
G1 X103.913 Y82.841 E.07518
G1 X106.319 Y82.854 E.07544
G1 X108.472 Y83.088 E.0679
G1 X110.821 Y83.592 E.07533
G1 X113.102 Y84.346 E.07533
G1 X115.287 Y85.343 E.0753
G1 X117.548 Y86.704 E.08274
G1 X119.453 Y88.168 E.07533
G1 X121.188 Y89.829 E.07531
G1 X122.59 Y91.48 E.06791
G1 X123.949 Y93.461 E.07532
G1 X125.085 Y95.577 E.0753
G1 X125.986 Y97.804 E.07532
G1 X126.641 Y100.115 E.07531
G1 X127.042 Y102.484 E.07533
G1 X127.185 Y104.882 E.07532
G1 X127.068 Y107.281 E.07531
G1 X126.641 Y109.885 E.08274
G1 X125.986 Y112.196 E.07531
G1 X125.085 Y114.423 E.07532
G1 X123.949 Y116.539 E.0753
G1 X122.59 Y118.52 E.07532
G1 X121.025 Y120.343 E.07533
G1 X119.453 Y121.832 E.06789
G1 X117.548 Y123.296 E.07533
G1 X115.496 Y124.546 E.07534
G1 X113.322 Y125.566 E.07529
G1 X111.532 Y126.182 E.05935
G1 X110.821 Y126.408 E.02339
G1 X108.472 Y126.912 E.07533
G1 X106.088 Y127.159 E.07515
G1 X103.681 Y127.146 E.07547
G1 X101.528 Y126.912 E.0679
G1 X99.179 Y126.408 E.07533
G1 X96.898 Y125.654 E.07533
G1 X94.713 Y124.657 E.0753
G1 X92.648 Y123.429 E.07533
G1 X90.728 Y121.986 E.07531
G1 X88.975 Y120.343 E.07533
G1 X87.466 Y118.586 E.07262
G1 X85.929 Y116.336 E.08544
G1 X84.815 Y114.208 E.07531
G1 X83.938 Y111.972 E.07531
G1 X83.308 Y109.653 E.07535
G1 X82.932 Y107.281 E.0753
G1 X82.815 Y104.882 E.07531
G1 X82.932 Y102.719 E.06792
G1 X83.376 Y100.054 E.08471
G1 X84.014 Y97.804 E.07333
G1 X84.915 Y95.577 E.07532
G1 X85.929 Y93.664 E.06789
G1 X87.267 Y91.668 E.07534
G1 X88.773 Y89.875 E.07342
G1 E-3.5 F3600
;WIPE_START
G1 F7200
G1 X88.812 Y89.829 E-.02865
G1 X90.547 Y88.168 E-1.1409
G1 X91.099 Y87.744 E-.33045
;WIPE_END
G1 X103.836 Y103.898 F9000
G1 E5 F2400
;TYPE:Perimeter
;WIDTH:0.419999
G1 F1200
G1 X103.92 Y103.814 E.00372
G1 X104.36 Y103.521 E.01657
G1 X104.858 Y103.396 E.0161
G1 X105.458 Y103.466 E.01894
G1 X105.703 Y103.558 E.00821
G1 X106.139 Y103.86 E.01663
G1 X106.437 Y104.273 E.01597
G1 X106.599 Y104.878 E.01964
G1 X106.599 Y105.122 E.00765
G1 X106.484 Y105.626 E.01621
G1 X106.211 Y106.062 E.01613
G1 X105.796 Y106.378 E.01635
G1 X105.509 Y106.525 E.01011
G1 X105.003 Y106.608 E.01608
G1 X104.455 Y106.516 E.01742
G1 X103.923 Y106.188 E.0196
G1 X103.755 Y106.011 E.00765
G1 X103.491 Y105.564 E.01628
G1 X103.392 Y105.07 E.0158
G1 X103.401 Y104.88 E.00596
G1 X103.51 Y104.391 E.01571
G1 X103.771 Y103.963 E.01572
G1 X103.794 Y103.94 E.00102
G1 X104.11 Y104.157 F9000
;TYPE:External perimeter
G1 F1200
G1 X104.133 Y104.125 E.00124
G1 X104.555 Y103.85 E.01579
G1 X104.974 Y103.769 E.01338
G1 X105.469 Y103.858 E.01577
G1 X105.886 Y104.14 E.01578
G1 X106.134 Y104.52 E.01423
G1 X106.234 Y105.02 E.01599
G1 X106.124 Y105.511 E.01578
G1 X105.866 Y105.876 E.01401
G1 X105.442 Y106.153 E.01588
G1 X105.027 Y106.231 E.01324
G1 X104.531 Y106.142 E.0158
G1 X104.113 Y105.859 E.01583
G1 X103.846 Y105.431 E.01582
G1 X103.769 Y104.96 E.01496
G1 X103.884 Y104.471 E.01575
G1 X104.075 Y104.206 E.01024
G1 E-3.5 F3600
;WIPE_START
G1 F7200
G1 X104.11 Y104.157 E-.0286
G1 X104.133 Y104.125 E-.01872
G1 X104.555 Y103.85 E-.23926
G1 X104.974 Y103.769 E-.20271
G1 X105.469 Y103.858 E-.2389
G1 X105.886 Y104.14 E-.23912
G1 X106.134 Y104.52 E-.21554
G1 X106.234 Y105.02 E-.2422
G1 X106.2 Y105.174 E-.07495
;WIPE_END
G1 X90.426 Y104.895 F9000
G1 E5 F2400
;TYPE:Perimeter
G1 F1200
G1 X90.435 Y104.955 E.0019
G1 X90.392 Y105.388 E.01364
G1 X90.242 Y105.841 E.01496
G1 X89.961 Y106.272 E.01613
G1 X89.622 Y106.577 E.0143
G1 X89.257 Y106.781 E.01311
G1 X88.856 Y106.902 E.01313
G1 X88.439 Y106.934 E.01311
G1 X88.025 Y106.876 E.01311
G1 X87.607 Y106.713 E.01407
G1 X87.169 Y106.408 E.01673
G1 X86.838 Y105.985 E.01684
G1 X86.627 Y105.495 E.01673
G1 X86.567 Y105.024 E.01489
G1 X86.601 Y104.628 E.01246
G1 X86.736 Y104.214 E.01365
G1 X87.066 Y103.701 E.01913
G1 X87.378 Y103.423 E.0131
G1 X87.743 Y103.219 E.01311
G1 X88.162 Y103.096 E.01369
G1 X88.577 Y103.07 E.01304
G1 X89.073 Y103.151 E.01576
G1 X89.55 Y103.374 E.01651
G1 X89.875 Y103.638 E.01313
G1 X90.148 Y103.992 E.01402
G1 X90.36 Y104.458 E.01605
G1 X90.417 Y104.836 E.01199
G1 X90.055 Y104.916 F9000
;TYPE:External perimeter
G1 F1200
G1 X90.058 Y104.936 E.00063
G1 X90.034 Y105.27 E.0105
G1 X89.888 Y105.709 E.01451
G1 X89.675 Y106.025 E.01195
G1 X89.427 Y106.254 E.01058
G1 X89.136 Y106.424 E.01057
G1 X88.815 Y106.527 E.01057
G1 X88.48 Y106.559 E.01055
G1 X88.145 Y106.518 E.01058
G1 X87.819 Y106.401 E.01086
G1 X87.407 Y106.11 E.01582
G1 X87.113 Y105.712 E.01551
G1 X86.992 Y105.397 E.01058
G1 X86.943 Y105.044 E.01117
G1 X86.965 Y104.728 E.00993
G1 X87.06 Y104.407 E.0105
G1 X87.325 Y103.975 E.01589
G1 X87.573 Y103.746 E.01058
G1 X87.864 Y103.576 E.01057
G1 X88.204 Y103.471 E.01116
G1 X88.518 Y103.443 E.00988
G1 X89.017 Y103.529 E.01588
G1 X89.336 Y103.686 E.01115
G1 X89.587 Y103.882 E.00999
G1 X89.806 Y104.151 E.01088
G1 X90.008 Y104.603 E.01552
G1 X90.046 Y104.856 E.00802
G1 E-3.5 F3600
;WIPE_START
G1 F7200
G1 X90.055 Y104.916 E-.02882
G1 X90.058 Y104.936 E-.00961
G1 X90.034 Y105.27 E-.15906
G1 X89.888 Y105.709 E-.21975
G1 X89.675 Y106.025 E-.18101
G1 X89.427 Y106.254 E-.16034
G1 X89.136 Y106.424 E-.16008
G1 X88.815 Y106.527 E-.16013
G1 X88.48 Y106.559 E-.15985
G1 X88.145 Y106.518 E-.16031
G1 X87.945 Y106.446 E-.10104
;WIPE_END
G1 X92.867 Y114.795 F9000
G1 E5 F2400
;TYPE:Perimeter
G1 F1200
G1 X92.924 Y114.776 E.00188
G1 X93.357 Y114.736 E.01363
G1 X93.907 Y114.817 E.01743
G1 X94.338 Y115.014 E.01486
G1 X94.67 Y115.268 E.01311
G1 X94.939 Y115.589 E.01313
G1 X95.134 Y115.959 E.01311
G1 X95.245 Y116.393 E.01405
G1 X95.25 Y116.944 E.01728
G1 X95.127 Y117.392 E.01457
G1 X94.929 Y117.76 E.0131
G1 X94.657 Y118.078 E.01312
G1 X94.296 Y118.342 E.01402
G1 X93.74 Y118.559 E.01871
G1 X93.294 Y118.599 E.01404
G1 X92.707 Y118.498 E.01868
G1 X92.328 Y118.321 E.01312
G1 X91.976 Y118.043 E.01406
G1 X91.619 Y117.566 E.01868
G1 X91.466 Y117.176 E.01314
G1 X91.4 Y116.763 E.01311
G1 X91.408 Y116.467 E.00928
G1 X91.538 Y115.944 E.0169
G1 X91.748 Y115.563 E.01364
G1 X92.169 Y115.122 E.01912
G1 X92.528 Y114.907 E.01312
G1 X92.81 Y114.814 E.00931
G1 X92.957 Y115.156 F9000
;TYPE:External perimeter
G1 F1200
G1 X92.976 Y115.149 E.00063
G1 X93.309 Y115.11 E.01051
G1 X93.81 Y115.183 E.01587
G1 X94.118 Y115.32 E.01057
G1 X94.389 Y115.52 E.01056
G1 X94.611 Y115.774 E.01058
G1 X94.773 Y116.07 E.01058
G1 X94.868 Y116.404 E.01089
G1 X94.868 Y116.924 E.0163
G1 X94.789 Y117.224 E.00973
G1 X94.635 Y117.524 E.01057
G1 X94.421 Y117.784 E.01056
G1 X94.147 Y117.996 E.01086
G1 X93.689 Y118.185 E.01553
G1 X93.345 Y118.225 E.01086
G1 X92.856 Y118.152 E.0155
G1 X92.548 Y118.014 E.01058
G1 X92.27 Y117.807 E.01087
G1 X91.965 Y117.417 E.01552
G1 X91.836 Y117.105 E.01059
G1 X91.777 Y116.773 E.01057
G1 X91.785 Y116.477 E.00928
G1 X91.876 Y116.111 E.01183
G1 X92.03 Y115.813 E.01052
G1 X92.372 Y115.439 E.01589
G1 X92.658 Y115.261 E.01056
G1 X92.9 Y115.176 E.00804
G1 E-3.5 F3600
;WIPE_START
G1 F7200
G1 X92.957 Y115.156 E-.02869
G1 X92.976 Y115.149 E-.00962
G1 X93.309 Y115.11 E-.15926
G1 X93.81 Y115.183 E-.24049
G1 X94.118 Y115.32 E-.16012
G1 X94.389 Y115.52 E-.15998
G1 X94.611 Y115.774 E-.16024
G1 X94.773 Y116.07 E-.16028
G1 X94.868 Y116.404 E-.16494
G1 X94.868 Y116.924 E-.247
G1 X94.863 Y116.943 E-.00938
;WIPE_END
G1 X103.258 Y120.694 F9000
G1 E5 F2400
;TYPE:Perimeter
G1 F1200
G1 X103.302 Y120.585 E.00369
G1 X103.604 Y120.157 E.01642
G1 X103.981 Y119.86 E.01505
G1 X104.474 Y119.635 E.01699
G1 X104.955 Y119.565 E.01524
G1 X105.388 Y119.608 E.01364
G1 X105.869 Y119.77 E.01591
G1 X106.299 Y120.066 E.01637
G1 X106.61 Y120.433 E.01508
G1 X106.781 Y120.743 E.0111
G1 X106.902 Y121.144 E.01313
G1 X106.934 Y121.561 E.01311
G1 X106.876 Y121.975 E.01311
G1 X106.713 Y122.393 E.01407
G1 X106.339 Y122.893 E.01958
G1 X105.852 Y123.237 E.01869
G1 X105.458 Y123.38 E.01314
G1 X105.044 Y123.435 E.01309
G1 X104.627 Y123.399 E.01312
G1 X104.201 Y123.259 E.01406
G1 X103.701 Y122.934 E.0187
G1 X103.423 Y122.622 E.0131
G1 X103.219 Y122.257 E.01311
G1 X103.098 Y121.856 E.01313
G1 X103.069 Y121.411 E.01398
G1 X103.124 Y121.024 E.01226
G1 X103.235 Y120.75 E.00927
G1 X103.594 Y120.849 F9000
;TYPE:External perimeter
G1 F1200
G1 X103.614 Y120.796 E.00178
G1 X103.882 Y120.413 E.01466
G1 X104.141 Y120.201 E.01049
G1 X104.602 Y119.992 E.01587
G1 X104.936 Y119.942 E.01059
G1 X105.27 Y119.966 E.0105
G1 X105.748 Y120.132 E.01587
G1 X106.025 Y120.325 E.01059
G1 X106.287 Y120.628 E.01256
G1 X106.424 Y120.864 E.00856
G1 X106.527 Y121.185 E.01057
G1 X106.559 Y121.52 E.01055
G1 X106.518 Y121.855 E.01058
G1 X106.401 Y122.181 E.01086
G1 X106.11 Y122.593 E.01582
G1 X105.679 Y122.9 E.01659
G1 X105.397 Y123.008 E.00947
G1 X105.064 Y123.058 E.01056
G1 X104.728 Y123.035 E.01056
G1 X104.396 Y122.936 E.01086
G1 X103.975 Y122.675 E.01553
G1 X103.746 Y122.427 E.01058
G1 X103.576 Y122.136 E.01057
G1 X103.473 Y121.815 E.01057
G1 X103.444 Y121.452 E.01142
G1 X103.482 Y121.145 E.0097
G1 X103.573 Y120.906 E.00802
G1 E-3.5 F3600
;WIPE_START
G1 F7200
G1 X103.594 Y120.849 E-.02885
G1 X103.614 Y120.796 E-.02691
G1 X103.882 Y120.413 E-.22204
G1 X104.141 Y120.201 E-.15898
G1 X104.602 Y119.992 E-.24043
G1 X104.936 Y119.942 E-.16042
G1 X105.27 Y119.966 E-.15906
G1 X105.748 Y120.132 E-.24035
G1 X106.025 Y120.325 E-.16036
G1 X106.166 Y120.488 E-.1026
;WIPE_END
G1 X114.861 Y117.331 F9000
G1 E5 F2400
;TYPE:Perimeter
G1 F1200
G1 X114.829 Y117.26 E.00244
G1 X114.731 Y116.736 E.01671
G1 X114.779 Y116.244 E.0155
G1 X114.925 Y115.834 E.01365
G1 X115.216 Y115.384 E.0168
G1 X115.589 Y115.061 E.01547
G1 X115.959 Y114.866 E.01311
G1 X116.374 Y114.755 E.01347
G1 X116.837 Y114.748 E.01452
G1 X117.392 Y114.873 E.01784
G1 X117.76 Y115.071 E.0131
G1 X118.078 Y115.343 E.01312
G1 X118.342 Y115.704 E.01402
G1 X118.556 Y116.241 E.01812
G1 X118.602 Y116.676 E.01372
G1 X118.555 Y117.092 E.01313
G1 X118.42 Y117.488 E.01312
G1 X118.202 Y117.845 E.01312
G1 X117.913 Y118.148 E.01313
G1 X117.566 Y118.381 E.01311
G1 X117.176 Y118.534 E.01314
G1 X116.733 Y118.598 E.01403
G1 X116.141 Y118.529 E.01869
G1 X115.729 Y118.356 E.01401
G1 X115.256 Y117.992 E.01871
G1 X115.005 Y117.658 E.0131
G1 X114.885 Y117.386 E.00932
G1 X115.219 Y117.199 F9000
;TYPE:External perimeter
G1 F1200
G1 X115.187 Y117.125 E.00253
G1 X115.108 Y116.689 E.01389
G1 X115.14 Y116.354 E.01055
G1 X115.244 Y116.035 E.01052
G1 X115.52 Y115.611 E.01586
G1 X115.774 Y115.389 E.01058
G1 X116.07 Y115.227 E.01058
G1 X116.405 Y115.131 E.01093
G1 X116.768 Y115.119 E.01139
G1 X117.271 Y115.234 E.01618
G1 X117.524 Y115.365 E.00893
G1 X117.784 Y115.579 E.01056
G1 X117.996 Y115.853 E.01086
G1 X118.185 Y116.311 E.01553
G1 X118.226 Y116.645 E.01055
G1 X118.195 Y116.981 E.01058
G1 X118.091 Y117.302 E.01058
G1 X117.922 Y117.593 E.01055
G1 X117.693 Y117.841 E.01058
G1 X117.417 Y118.035 E.01058
G1 X117.105 Y118.164 E.01059
G1 X116.764 Y118.222 E.01085
G1 X116.271 Y118.175 E.01553
G1 X115.948 Y118.05 E.01086
G1 X115.55 Y117.755 E.01553
G1 X115.343 Y117.49 E.01054
G1 X115.242 Y117.255 E.00802
G1 E-3.5 F3600
;WIPE_START
G1 F7200
G1 X115.219 Y117.199 E-.02876
G1 X115.187 Y117.125 E-.0383
G1 X115.108 Y116.689 E-.21047
G1 X115.14 Y116.354 E-.15985
G1 X115.244 Y116.035 E-.15937
G1 X115.52 Y115.611 E-.24031
G1 X115.774 Y115.389 E-.16024
G1 X116.07 Y115.227 E-.16028
G1 X116.405 Y115.131 E-.16553
G1 X116.768 Y115.119 E-.17252
G1 X116.777 Y115.121 E-.00437
;WIPE_END
G1 X120.694 Y106.742 F9000
G1 E5 F2400
;TYPE:Perimeter
G1 F1200
G1 X120.582 Y106.696 E.0038
G1 X120.126 Y106.362 E.01772
G1 X119.865 Y106.035 E.01312
G1 X119.681 Y105.66 E.0131
G1 X119.583 Y105.238 E.01358
G1 X119.589 Y104.684 E.01737
G1 X119.751 Y104.18 E.0166
G1 X120.034 Y103.733 E.01659
G1 X120.379 Y103.423 E.01454
G1 X120.743 Y103.219 E.01308
G1 X121.024 Y103.124 E.0093
G1 X121.426 Y103.067 E.01273
G1 X122.026 Y103.141 E.01896
G1 X122.445 Y103.311 E.01418
G1 X122.831 Y103.592 E.01497
G1 X123.162 Y104.015 E.01684
G1 X123.347 Y104.424 E.01407
G1 X123.435 Y104.956 E.01691
G1 X123.399 Y105.373 E.01312
G1 X123.259 Y105.799 E.01406
G1 X122.934 Y106.299 E.0187
G1 X122.622 Y106.577 E.0131
G1 X122.257 Y106.781 E.01311
G1 X121.842 Y106.904 E.01357
G1 X121.439 Y106.934 E.01267
G1 X121.025 Y106.876 E.01311
G1 X120.75 Y106.764 E.00931
G1 X120.85 Y106.406 F9000
;TYPE:External perimeter
G1 F1200
G1 X120.794 Y106.384 E.00189
G1 X120.398 Y106.1 E.01528
G1 X120.198 Y105.858 E.00984
G1 X120.044 Y105.559 E.01055
G1 X119.96 Y105.235 E.01049
G1 X119.966 Y104.73 E.01584
G1 X120.132 Y104.252 E.01587
G1 X120.33 Y103.97 E.0108
G1 X120.573 Y103.746 E.01036
G1 X120.864 Y103.576 E.01057
G1 X121.145 Y103.482 E.00929
G1 X121.518 Y103.443 E.01176
G1 X122.017 Y103.529 E.01588
G1 X122.321 Y103.675 E.01057
G1 X122.593 Y103.89 E.01087
G1 X122.887 Y104.288 E.01551
G1 X123.008 Y104.603 E.01058
G1 X123.057 Y104.956 E.01117
G1 X123.035 Y105.272 E.00993
G1 X122.936 Y105.604 E.01086
G1 X122.675 Y106.025 E.01553
G1 X122.427 Y106.254 E.01058
G1 X122.136 Y106.424 E.01057
G1 X121.801 Y106.529 E.01101
G1 X121.48 Y106.559 E.01011
G1 X121.145 Y106.518 E.01058
G1 X120.906 Y106.427 E.00802
G1 E-3.5 F3600
;WIPE_START
G1 F7200
G1 X120.85 Y106.406 E-.02841
G1 X120.794 Y106.384 E-.02858
G1 X120.398 Y106.1 E-.23147
G1 X120.198 Y105.858 E-.14913
G1 X120.044 Y105.559 E-.15976
G1 X119.96 Y105.235 E-.15899
G1 X119.966 Y104.73 E-.23989
G1 X120.132 Y104.252 E-.24035
G1 X120.33 Y103.97 E-.16367
G1 X120.484 Y103.828 E-.09975
;WIPE_END
G1 X117.333 Y95.144 F9000
G1 E5 F2400
;TYPE:Perimeter
G1 F1200
G1 X117.277 Y95.169 E.00192
G1 X116.831 Y95.257 E.01425
G1 X116.316 Y95.238 E.01616
G1 X115.847 Y95.085 E.01547
G1 X115.468 Y94.847 E.01403
G1 X115.095 Y94.465 E.01674
G1 X114.867 Y94.042 E.01507
G1 X114.768 Y93.714 E.01074
G1 X114.743 Y93.166 E.0172
G1 X114.846 Y92.673 E.01579
G1 X115.083 Y92.229 E.01578
G1 X115.503 Y91.787 E.01912
G1 X115.863 Y91.573 E.01313
G1 X116.259 Y91.441 E.01309
G1 X116.692 Y91.402 E.01363
G1 X117.293 Y91.502 E.0191
G1 X117.672 Y91.679 E.01312
G1 X118.024 Y91.957 E.01406
G1 X118.349 Y92.371 E.0165
G1 X118.534 Y92.824 E.01534
G1 X118.6 Y93.237 E.01311
G1 X118.568 Y93.686 E.01411
G1 X118.462 Y94.057 E.0121
G1 X118.264 Y94.426 E.01313
G1 X117.992 Y94.744 E.01312
G1 X117.657 Y94.995 E.01312
G1 X117.387 Y95.119 E.00932
G1 X117.204 Y94.794 F9000
;TYPE:External perimeter
G1 F1200
G1 X117.186 Y94.803 E.00063
G1 X116.841 Y94.88 E.01108
G1 X116.353 Y94.86 E.01531
G1 X116.032 Y94.757 E.01057
G1 X115.734 Y94.581 E.01085
G1 X115.389 Y94.226 E.01552
G1 X115.227 Y93.931 E.01055
G1 X115.138 Y93.639 E.00957
G1 X115.12 Y93.136 E.01578
G1 X115.211 Y92.776 E.01164
G1 X115.365 Y92.479 E.01049
G1 X115.706 Y92.105 E.01587
G1 X115.993 Y91.927 E.01059
G1 X116.31 Y91.815 E.01054
G1 X116.643 Y91.776 E.01051
G1 X117.144 Y91.848 E.01587
G1 X117.452 Y91.986 E.01058
G1 X117.73 Y92.193 E.01087
G1 X118.035 Y92.583 E.01552
G1 X118.164 Y92.895 E.01059
